public/assets/images/career/13.svg

<svg width="20" height="20" viewBox="0 0 20 20" fill="none" xmlns="http://www.w3.org/2000/svg">
<path d="M12.5 5V6.25H16.6162L11.25 11.6162L8.56687 8.93313C8.50887 8.87506 8.43998 8.829 8.36416 8.79758C8.28834 8.76615 8.20707 8.74998 8.125 8.74998C8.04293 8.74998 7.96166 8.76615 7.88584 8.79758C7.81002 8.829 7.74113 8.87506 7.68313 8.93313L1.25 15.3662L2.13381 16.25L8.125 10.2588L10.8081 12.9419C10.8661 12.9999 10.935 13.046 11.0108 13.0774C11.0867 13.1088 11.1679 13.125 11.25 13.125C11.3321 13.125 11.4133 13.1088 11.4892 13.0774C11.565 13.046 11.6339 12.9999 11.6919 12.9419L17.5 7.13381V11.25H18.75V5H12.5Z" fill="#050D20"/>
</svg>

<svg xmlns="http://www.w3.org/2000/svg" width="20" height="20" fill="none" viewBox="0 0 20 20"><path fill="#050d20" d="M12.5 5v1.25h4.116l-5.366 5.366-2.683-2.683a.624.624 0 0 0-.884 0L1.25 15.366l.884.884 5.991-5.991 2.683 2.683a.625.625 0 0 0 .884 0L17.5 7.134v4.116h1.25V5z"/></svg>
